X: 19804
T: Jerome Burke's
R: polka
M: 2/4
K: Dmajor
D>F AB/c/|dc BA|BE EF|GE FE|
DF AB/c/|d/d/c BA|Be Bc|d2 de/d/|
D>F AB/c/|d/d/c BA|BE EF|GA/G/ FE|
DF AD|dc BA|B/B/e Bc|d2 de||
f2 fe/f/|gf ed|e2 ed/e/|fe cA|
f2 f2|gf ed|cA Bc|d2 de|
f2 fe/f/|g/g/f ed|e2 ed/e/|f/f/e c/B/A|
f2 fa|gf e>d|cA Bc|d2 d2||

